X:31
M:9/4
L:1/4
Q:3/4=100
K:Dmin
dA/B/c/A/BGBAFA | c2cc>dcB2A |
dA/B/c/A/BG/A/B/G/AF/G/A/F/ | d2dd>ddd2A :|
 |: dAGF2GA3 | c2cc>dcB2A |
dAGF2GA3 | d2dd>_edc2A :|
L:1/8
 |: F3GAFE3FGED3EFD | cBcdc2c2C2c2B4A2 |
L:1/4
 |: FDFECED3 | c3c>dcB2A |

